X:62
T:Black Prince's Hornpipe. ThoH.062, The
Q:1/2=90
M:3/2
L:1/8
B:Thompson's Compleat Collection of 120 Favourite Hornpipes.
Z:Village Music Project, Simon Wilson 2016
O:England.
K:A
A4cBcAe2fg|a2gfe2dc dcBA|G2Ac BAGFE4|
A4cBcAe2fg|agaba2gf gfe^d|e2^dc BAGFE4:|
|:E4GFGEB2cd|cAGA dAGA eAGA|f=gfe dedc BcBA|GFGA BAGFE4|
A4cBcAe2fg|agaba2gfe2dc|fdcB ecBA dBAG|A2GF EDCB,A,4:|

